X:90
T:Mistress Creasey
A:Wyresdale, Lancashire
B:E and J Winder, 1835-41
L:1/8
M:6/8
O:England
Z:Richard Robinson 
%%RRN:"A Good Tune"
%%TUNEURL: http://www.leeds.ac.uk/music/Info/RRTuneBk/gettune/000005a8.html
%%ID:000005a8
K:D
d2B (BcB) | A2A (ABA) | B2B (BcB) | g3 (f2e) | \
d2B (BcB) | A2A (ABA) | B2B (BcB) | d3 (f2e) ::
d2e f2g | a2b a2f | d2e  f2g  | a3 -a(ga) | \
a2g a2f | g2e a2f | d2B (BcB) | g3 (f2e) ::
